src/img/icons/arrow-right.svg

<svg width="32" height="32" viewBox="0 0 32 32" fill="none" xmlns="http://www.w3.org/2000/svg">
<path d="M23.8795 16.9591H5.94105C5.66969 16.9591 5.445 16.8687 5.267 16.6881C5.089 16.5077 5 16.2802 5 16.0054C5 15.7305 5.089 15.5028 5.267 15.3224C5.445 15.142 5.66969 15.0518 5.94105 15.0518H23.8795L15.5639 6.63557C15.3847 6.44609 15.2924 6.22435 15.2872 5.97036C15.2817 5.71637 15.3766 5.49185 15.5718 5.2968C15.767 5.1015 15.9878 5.00259 16.2342 5.00006C16.4806 4.99728 16.7015 5.0948 16.8967 5.29263L26.6495 15.1755C26.7716 15.2995 26.8606 15.4286 26.9165 15.563C26.9722 15.6976 27 15.8454 27 16.0066C27 16.168 26.9722 16.3155 26.9165 16.449C26.8606 16.5826 26.7716 16.7114 26.6495 16.8353L16.8967 26.7183C16.7162 26.9012 16.4997 26.995 16.2473 26.9998C15.9947 27.0046 15.7695 26.9108 15.5718 26.7183C15.3766 26.5176 15.2789 26.2919 15.2789 26.0409C15.2789 25.7899 15.3766 25.5687 15.5718 25.3772L23.8795 16.9591Z" fill="#131212"/>
</svg>

<svg xmlns="http://www.w3.org/2000/svg" viewBox="0 0 32 32">
  <path fill="currentColor" d="M23.88 16.96H5.94a.907.907 0 0 1-.674-.272.932.932 0 0 1-.267-.683c0-.274.089-.502.267-.683a.907.907 0 0 1 .674-.27h17.94l-8.315-8.416a.968.968 0 0 1-.277-.666.896.896 0 0 1 .285-.673.928.928 0 0 1 .662-.297c.247-.003.467.095.663.293l9.753 9.883c.122.123.21.253.267.387.055.135.083.282.083.444 0 .161-.028.308-.084.442a1.234 1.234 0 0 1-.267.386l-9.752 9.883a.916.916 0 0 1-1.325 0 .948.948 0 0 1-.293-.677c0-.251.098-.472.293-.664l8.308-8.418Z"/>
</svg>
